packages/icons/src/SVG/chatting-solid.svg

<svg width="12" height="12" viewBox="0 0 12 12" >
<path fill-rule="evenodd" clip-rule="evenodd" d="M5.65667 0C2.53258 0 0 2.58677 0 5.77771C0 8.96865 2.53258 11.5554 5.65667 11.5554C6.74104 11.5554 7.75414 11.2438 8.6148 10.7034L12 12L10.6868 8.42326C11.0872 7.63061 11.3133 6.73114 11.3133 5.77771C11.3133 2.58677 8.78076 0 5.65667 0ZM6.53659 5.9061C6.53659 6.47337 6.08634 6.93325 5.53096 6.93325C4.97558 6.93325 4.52533 6.47337 4.52533 5.9061C4.52533 5.33883 4.97558 4.87895 5.53096 4.87895C6.08634 4.87895 6.53659 5.33883 6.53659 5.9061ZM9.30208 5.9061C9.30208 6.47337 8.85183 6.93325 8.29645 6.93325C7.74107 6.93325 7.29082 6.47337 7.29082 5.9061C7.29082 5.33883 7.74107 4.87895 8.29645 4.87895C8.85183 4.87895 9.30208 5.33883 9.30208 5.9061ZM3.77112 5.9061C3.77112 6.47336 3.32087 6.93325 2.76548 6.93325C2.2101 6.93325 1.75985 6.47336 1.75985 5.9061C1.75985 5.33883 2.21009 4.87895 2.76548 4.87895C3.32088 4.87895 3.77112 5.33883 3.77112 5.9061Z" />
</svg>

<!-- Generated by IcoMoon.io -->
<svg version="1.1" xmlns="http://www.w3.org/2000/svg" width="12" height="12" viewBox="0 0 12 12">
<title>chatting-solid</title>
<path d="M5.657 0c-3.124 0-5.657 2.587-5.657 5.778s2.533 5.778 5.657 5.778c1.084 0 2.097-0.312 2.958-0.852l3.385 1.297-1.313-3.577c0.4-0.793 0.626-1.692 0.626-2.646 0-3.191-2.533-5.778-5.657-5.778zM6.537 5.906c0 0.567-0.45 1.027-1.006 1.027s-1.006-0.46-1.006-1.027c0-0.567 0.45-1.027 1.006-1.027s1.006 0.46 1.006 1.027zM9.302 5.906c0 0.567-0.45 1.027-1.006 1.027s-1.006-0.46-1.006-1.027c0-0.567 0.45-1.027 1.006-1.027s1.006 0.46 1.006 1.027zM3.771 5.906c0 0.567-0.45 1.027-1.006 1.027s-1.006-0.46-1.006-1.027c0-0.567 0.45-1.027 1.006-1.027s1.006 0.46 1.006 1.027z"></path>
</svg>
